X: 2
T:Abacus
% Nottingham Music Database
S:By Hugh Barwell, via Phil Rowe
M:6/8
K:G
"G"g2g B^AB|d2d G3|"Em"GAB "Am"A2A|"D7"ABc "G"BAG|
"G"g2g B^AB|d2d G2G|"Em"GAB "Am"A2G|"D7"FGA "G"G3:||:
"D7"A^GA DFA|"G"B^AB G3|"A7"^c=c^c A^ce|"D7"fef def|
"G"g2g de=f|"E7"e2e Bcd|"Am"c2c "D7"Adc| [1"G"B2A G3:|
 [2"G"B2A G2F||"Em"E2E G2G|B2B e2e|"Am"c2A "B7"FBA|"Em"G2F E3|"Em"EFG "Am"ABc|
"B7"B^c^d "Em"e2e|"F#7"f2f f2e|"B7"^def BAF|"Em"E2E G2G|B2B e2e|
"Am"c2A "B7"FBA|"Em"G2F E3|"Em"EFG "Am"ABc|"B7"B^c^d "Em"e2e|
"F#7"f2e "B7"^def |[1"Em"e3 "D7"d3:|[2"Em"e3 "E7"e3||


